public/static/img/crypto1/DOGE.svg

<svg width="32" height="32" viewBox="0 0 32 32" fill="none" xmlns="http://www.w3.org/2000/svg">
<g clip-path="url(#clip0_696_7409)">
<path d="M31.9898 16.0771C31.9898 24.8697 24.8623 31.9975 16.0694 31.9975C7.27693 31.9975 0.149048 24.8697 0.149048 16.0771C0.149048 7.2843 7.27693 0.156738 16.0694 0.156738C24.8623 0.156738 31.9898 7.2843 31.9898 16.0771Z" fill="#C3A723"/>
<path d="M17.7117 21.503H14.193V16.966H17.6821V15.1351H14.193V10.6777H17.4995C17.4995 10.6777 21.5693 10.6777 21.5693 15.7145C21.5693 21.6531 17.7116 21.5028 17.7116 21.5028M17.1647 7.49316H10.9558V15.135H8.88611V16.9658H10.9558V24.6872H17.5627C17.5627 24.6872 24.8065 24.926 24.8065 15.4932C24.8065 7.49316 17.1647 7.49316 17.1647 7.49316Z" fill="white"/>
</g>
<defs>
<clipPath id="clip0_696_7409">
<rect width="32" height="32" fill="white"/>
</clipPath>
</defs>
</svg>

<svg width="32" height="32" fill="none" xmlns="http://www.w3.org/2000/svg"><g clip-path="url(#a)"><path d="M31.99 16.077c0 8.793-7.128 15.92-15.92 15.92-8.793 0-15.921-7.127-15.921-15.92S7.277.157 16.069.157c8.793 0 15.92 7.127 15.92 15.92Z" fill="#C3A723"/><path d="M17.712 21.503h-3.519v-4.537h3.49v-1.83h-3.49v-4.458H17.5s4.07 0 4.07 5.036c0 5.94-3.858 5.789-3.858 5.789m-.547-14.01h-6.21v7.642H8.887v1.83h2.07v7.722h6.607s7.244.239 7.244-9.194c0-8-7.642-8-7.642-8Z" fill="#fff"/></g><defs><clipPath id="a"><path fill="#fff" d="M0 0h32v32H0z"/></clipPath></defs></svg>
